src/main/webapp/resources/showcase/images/whouses/sap.svg

<svg width="90" height="45" xmlns="http://www.w3.org/2000/svg"><path d="M0 0v44.415h45.371L89.781.005H0V0zm57.469 39.875v3.313h.5V41.75h.562l.907 1.438H60l-.969-1.438c.484-.06.875-.342.875-.938 0-.652-.4-.937-1.187-.937h-1.25zm.5.438h.687c.338 0 .719.054.719.468 0 .517-.386.563-.813.563h-.593v-1.032.001zm.625-1.657c-1.586 0-2.938 1.222-2.938 2.875 0 1.665 1.352 2.907 2.938 2.907a2.868 2.868 0 002.875-2.907c0-1.653-1.311-2.875-2.875-2.875zm0 .469c1.294 0 2.312 1.045 2.312 2.406 0 1.384-1.018 2.407-2.312 2.407-1.316 0-2.375-1.023-2.375-2.407 0-1.36 1.059-2.406 2.375-2.406zM12.23 7.883c3.224.007 7.165.919 10.009 2.372l-3.07 5.348c-3.117-1.507-4.687-1.651-6.467-1.741-2.641-.141-3.98.803-4 1.821-.023 1.245 2.507 2.369 4.884 3.134 3.606 1.143 8.193 2.676 8.89 7.104l6.596-17.568h7.652l7.72 21.013V8.353h8.837c8.447.009 12.415 3.018 12.415 9.578 0 5.894-4.086 9.406-10.986 9.406h-2.857v8.49H38.759l-1.296-4.06c-1.385.456-2.95.706-4.609.706-1.7 0-3.306-.268-4.716-.745l-1.348 4.099h-8.025l.884-2.376-.324.283c-2.001 1.608-4.505 2.493-7.605 2.553h-.461a20.39 20.39 0 01-10.003-2.661l2.729-5.423c2.958 1.748 4.815 2.138 7.319 2.088 1.299-.029 2.238-.264 2.849-.899.371-.38.562-.861.582-1.374.023-1.409-1.981-2.07-4.436-2.827-1.99-.624-4.243-1.457-6.009-2.751-2.087-1.537-3.084-3.459-3.034-6.167.033-1.977.764-3.753 2.115-5.157 1.944-2.007 5.078-3.233 8.839-3.233zm20.654 9.115h-.06l-2.803 8.84a8.084 8.084 0 002.831.502c.948 0 1.887-.161 2.777-.478l-2.745-8.864zm20.913-2.863h-1.946v7.117h1.946c2.598 0 4.666-.86 4.666-3.604 0-2.657-2.068-3.513-4.666-3.513z" fill="#FFF"/></svg>

<?xml version="1.0" encoding="UTF-8"?>
<svg width="90px" height="45px" viewBox="0 0 90 45" version="1.1" xmlns="http://www.w3.org/2000/svg" xmlns:xlink="http://www.w3.org/1999/xlink">
    <title>sap</title>
    <g id="Page-1" stroke="none" stroke-width="1" fill="none" fill-rule="evenodd">
        <g id="sap" fill="#FFFFFF" fill-rule="nonzero">
            <path d="M0,0 L0,44.415 L45.371,44.415 L89.781,0.005 L0,0.005 L0,0 Z M57.469,39.875 L57.469,43.188 L57.969,43.188 L57.969,41.75 L58.531,41.75 L59.438,43.188 L60,43.188 L59.031,41.75 C59.515,41.69 59.906,41.408 59.906,40.812 C59.906,40.16 59.506,39.875 58.719,39.875 L57.469,39.875 Z M57.969,40.313 L58.656,40.313 C58.994,40.313 59.375,40.367 59.375,40.781 C59.375,41.298 58.989,41.344 58.562,41.344 L57.969,41.344 L57.969,40.312 L57.969,40.313 Z M58.594,38.656 C57.008,38.656 55.656,39.878 55.656,41.531 C55.656,43.196 57.008,44.4380092 58.594,44.4380092 C59.3626594,44.4399472 60.0999304,44.1332626 60.64044,43.5867369 C61.1809497,43.0402111 61.479455,42.2995908 61.469,41.531 C61.469,39.878 60.158,38.656 58.594,38.656 Z M58.594,39.125 C59.888,39.125 60.906,40.17 60.906,41.531 C60.906,42.915 59.888,43.938 58.594,43.938 C57.278,43.938 56.219,42.915 56.219,41.531 C56.219,40.171 57.278,39.125 58.594,39.125 Z M12.23,7.883 C15.454,7.89 19.395,8.802 22.239,10.255 L22.239,10.255 L19.169,15.603 C16.052,14.096 14.482,13.952 12.702,13.862 C10.061,13.721 8.722,14.665 8.702,15.683 C8.679,16.928 11.209,18.052 13.586,18.817 C17.192,19.96 21.779,21.493 22.476,25.921 L22.476,25.921 L29.072,8.353 L36.724,8.353 L44.444,29.366 L44.444,8.353 L53.281,8.353 C61.728,8.362 65.696,11.371 65.696,17.931 C65.696,23.825 61.61,27.337 54.71,27.337 L54.71,27.337 L51.853,27.337 L51.853,35.827 L38.759,35.827 L37.463,31.767 C36.078,32.223 34.513,32.473 32.854,32.473 C31.154,32.473 29.548,32.205 28.138,31.728 L28.138,31.728 L26.79,35.827 L18.765,35.827 L19.649,33.451 L19.325,33.734 C17.324,35.342 14.82,36.227 11.72,36.287 L11.72,36.287 L11.259,36.287 C7.75128531,36.2751846 4.30593726,35.3586525 1.256,33.626 L1.256,33.626 L3.985,28.203 C6.943,29.951 8.8,30.341 11.304,30.291 C12.603,30.262 13.542,30.027 14.153,29.392 C14.524,29.012 14.715,28.531 14.735,28.018 C14.758,26.609 12.754,25.948 10.299,25.191 C8.309,24.567 6.056,23.734 4.29,22.44 C2.203,20.903 1.206,18.981 1.256,16.273 C1.289,14.296 2.02,12.52 3.371,11.116 C5.315,9.109 8.449,7.883 12.21,7.883 L12.21,7.883 Z M32.884,16.998 L32.824,16.998 L30.021,25.838 C30.9270841,26.1731708 31.8859164,26.3431934 32.852,26.3400442 L32.852,26.3400442 C33.8002202,26.3407352 34.7385387,26.1790495 35.629,25.862 L35.629,25.862 L32.884,16.998 Z M53.797,14.135 L51.851,14.135 L51.851,21.252 L53.797,21.252 C56.395,21.252 58.463,20.392 58.463,17.648 C58.463,14.991 56.395,14.135 53.797,14.135 L53.797,14.135 Z" id="Shape"></path>
        </g>
    </g>
</svg>
